X:1
T: The Court of the Geese
C:C Sherrit
R:Jig
Q:180
K:A
M:6/8
L:1/16
e2|:A4B2 c2e2A2|d4e2 f2a2d2|e2f2g2 a2A2c2|B2d2B2 E2F2G2|
A4B2 c2e2A2|d4e2 f2a2d2|e2f2g2 a2c2d2|e2d2B2 A4e2:|
|:e2f2g2 a4e2|f4a2 d2e2f2|e2f2g2 a2A2c2|
|1B2d2c2 B4e2|e2f2g2 a4e2|f4a2 d2e2f2|e2f2g2 a2c2d2|e2d2B2 A4e2:|
|2B2d2B2 E2F2G2|A2B2c2 c2e2A2|d2e2f2 f2a2d2|e2f2g2 a2c2d2|e2d2B2 A4||
